symbols/web/contact_phone/materialsymbolsoutlined/contact_phone_wght200gradN25_48px.svg

<svg xmlns="http://www.w3.org/2000/svg" height="48" width="48"><path d="M4.8 39.15q-1.1 0-1.925-.8t-.825-1.9v-24.9q0-1.1.825-1.925T4.8 8.8h38.4q1.1 0 1.925.825t.825 1.925v24.9q0 1.1-.825 1.9-.825.8-1.925.8Zm23.7-1.5h14.7q.45 0 .85-.375.4-.375.4-.825v-24.9q0-.45-.4-.85-.4-.4-.85-.4H4.8q-.45 0-.85.4-.4.4-.4.85v24.9q0 .45.4.825.4.375.85.375h1.3q2.15-2.55 4.975-4.125Q13.9 31.95 17.3 31.95q3.3 0 6.15 1.6 2.85 1.6 5.05 4.1ZM17.25 28.5q2.1 0 3.575-1.475T22.3 23.5q0-2.05-1.475-3.525T17.3 18.5q-2.15 0-3.55 1.45t-1.4 3.55q0 2.05 1.4 3.525t3.5 1.475Zm19.25 6.6 3.15-3.1-2.4-3.35h-3.5q-.45-1.3-.625-2.35T32.95 24q0-1.25.175-2.225.175-.975.575-2.375h3.55l2.4-3.3-3.15-3.15q-2.45 2.05-3.75 4.925-1.3 2.875-1.3 6.175 0 3.25 1.3 6.125T36.5 35.1ZM8.2 37.65h18.15q-1.75-2-4.125-3.1t-4.975-1.1q-2.55 0-4.925 1.1T8.2 37.65Zm9.1-10.7q-1.45 0-2.45-1-1-1-1-2.45 0-1.45 1-2.45 1-1 2.45-1 1.4 0 2.45 1 1.05 1 1.05 2.45 0 1.4-1.05 2.425T17.3 26.95Zm6.7-3Z"/></svg>

<svg xmlns="http://www.w3.org/2000/svg" height="48" width="48"><path d="M4.8 39.15Q3.7 39.15 2.875 38.35Q2.05 37.55 2.05 36.45V11.55Q2.05 10.45 2.875 9.625Q3.7 8.8 4.8 8.8H43.2Q44.3 8.8 45.125 9.625Q45.95 10.45 45.95 11.55V36.45Q45.95 37.55 45.125 38.35Q44.3 39.15 43.2 39.15ZM28.5 37.65H43.2Q43.65 37.65 44.05 37.275Q44.45 36.9 44.45 36.45V11.55Q44.45 11.1 44.05 10.7Q43.65 10.3 43.2 10.3H4.8Q4.35 10.3 3.95 10.7Q3.55 11.1 3.55 11.55V36.45Q3.55 36.9 3.95 37.275Q4.35 37.65 4.8 37.65H6.1Q8.25 35.1 11.075 33.525Q13.9 31.95 17.3 31.95Q20.6 31.95 23.45 33.55Q26.3 35.15 28.5 37.65ZM17.25 28.5Q19.35 28.5 20.825 27.025Q22.3 25.55 22.3 23.5Q22.3 21.45 20.825 19.975Q19.35 18.5 17.3 18.5Q15.15 18.5 13.75 19.95Q12.35 21.4 12.35 23.5Q12.35 25.55 13.75 27.025Q15.15 28.5 17.25 28.5ZM36.5 35.1 39.65 32 37.25 28.65H33.75Q33.3 27.35 33.125 26.3Q32.95 25.25 32.95 24Q32.95 22.75 33.125 21.775Q33.3 20.8 33.7 19.4H37.25L39.65 16.1L36.5 12.95Q34.05 15 32.75 17.875Q31.45 20.75 31.45 24.05Q31.45 27.3 32.75 30.175Q34.05 33.05 36.5 35.1ZM8.2 37.65H26.35Q24.6 35.65 22.225 34.55Q19.85 33.45 17.25 33.45Q14.7 33.45 12.325 34.55Q9.95 35.65 8.2 37.65ZM17.3 26.95Q15.85 26.95 14.85 25.95Q13.85 24.95 13.85 23.5Q13.85 22.05 14.85 21.05Q15.85 20.05 17.3 20.05Q18.7 20.05 19.75 21.05Q20.8 22.05 20.8 23.5Q20.8 24.9 19.75 25.925Q18.7 26.95 17.3 26.95ZM24 23.95Q24 23.95 24 23.95Q24 23.95 24 23.95Q24 23.95 24 23.95Q24 23.95 24 23.95Q24 23.95 24 23.95Q24 23.95 24 23.95Q24 23.95 24 23.95Q24 23.95 24 23.95Q24 23.95 24 23.95Q24 23.95 24 23.95Q24 23.95 24 23.95Q24 23.95 24 23.95Z"/></svg>
